X: 885
T: Alexander The Great
R: reel
M: 4/4
K: Amajor
M:7/8
A2 EABcd|e2feddc|d2edcBA|
cdcBAcB|A2EABcd|e2feddc|
d2cBAcB|1 A6 z|z6 z:|2 A6 z||
ddcB2B2|ABce4|ddcB2B2|BcBA4|
ddcB2B2|ABce2fd|c2A2AAG|A6 z||

